X:1
T:Joe MacInnis' Reel
M:C
L:1/8
R:Reel
C:Gordon F. MacQuarrie
B:Cape Breton Collection (1940)
K:D
A|FDFA dAFD|A,DFA GEEA|FDFA dAFD|1 A,EGE FDD:|2 BGdA FDD||
g|fdAd FA Dg|fdfa beeg|fdAd FADg|face fddg|
fdAd FA Dg|fdfa beeg|fdec dBAF|GBCA, FDD||
